X:600
T:Garrett Barry's
C:Chieftains
R:jig
Z:
M:6/8
K:Dmix
"G"DEF GFG|"Am"AGE c2A|"G"dcA "D"d2e|fed "C"cAG|
"D\Bm"F2F "G"G2G|"Am"AGA cde|"D\G"dcA "A\Em"GEA|"D"DED "D\G"D2A:|
|:"D"dcA d2e|f2d "Em"(3efg e|dcA "C"c2d|"(D)"efd "A"ecA|
"D"dcA d2e|fed "G"(3efg e|dcA "Em\A"GEA|"D"DED "G\D"D2 A:|
